src/images/footer/facebook_mob.svg

<svg width="31" height="31" viewBox="0 0 31 31" fill="none" xmlns="http://www.w3.org/2000/svg">
<path d="M30.0951 15.2837C30.0951 6.98294 23.3538 0.246094 15.0476 0.246094C6.74131 0.246094 0 6.98294 0 15.2837C0 22.5619 5.17636 28.622 12.038 30.0205V19.795H9.02854V15.2837H12.038V11.5243C12.038 8.62203 14.4005 6.26113 17.3047 6.26113H21.0666V10.7724H18.0571C17.2295 10.7724 16.5523 11.4491 16.5523 12.2762V15.2837H21.0666V19.795H16.5523V30.2461C24.1513 29.4942 30.0951 23.0882 30.0951 15.2837Z" fill="#3A4551"/>
</svg>

<svg width="31" height="31" fill="none" xmlns="http://www.w3.org/2000/svg"><path d="M30.095 15.284c0-8.301-6.741-15.038-15.047-15.038C6.74.246 0 6.983 0 15.284c0 7.278 5.176 13.338 12.038 14.736V19.795h-3.01v-4.511h3.01v-3.76a5.27 5.27 0 0 1 5.267-5.263h3.762v4.511h-3.01c-.827 0-1.505.677-1.505 1.504v3.008h4.515v4.511h-4.515v10.451c7.6-.752 13.543-7.158 13.543-14.962Z" fill="#3A4551"/></svg>
